src/assets/svg/file-empty.svg

<!-- Generated by IcoMoon.io -->
<svg version="1.1" xmlns="http://www.w3.org/2000/svg" width="32" height="32" viewBox="0 0 32 32">
<title>file-empty</title>
<path d="M28.681 7.159c-0.694-0.947-1.662-2.053-2.724-3.116s-2.169-2.030-3.116-2.724c-1.612-1.182-2.393-1.319-2.841-1.319h-15.5c-1.378 0-2.5 1.121-2.5 2.5v27c0 1.378 1.122 2.5 2.5 2.5h23c1.378 0 2.5-1.122 2.5-2.5v-19.5c0-0.448-0.137-1.23-1.319-2.841zM24.543 5.457c0.959 0.959 1.712 1.825 2.268 2.543h-4.811v-4.811c0.718 0.556 1.584 1.309 2.543 2.268zM28 29.5c0 0.271-0.229 0.5-0.5 0.5h-23c-0.271 0-0.5-0.229-0.5-0.5v-27c0-0.271 0.229-0.5 0.5-0.5 0 0 15.499-0 15.5 0v7c0 0.552 0.448 1 1 1h7v19.5z"></path>
</svg>

<svg xmlns="http://www.w3.org/2000/svg" viewBox="0 0 32 32">
  <path d="M28.7 7.2a28.4 28.4 0 0 0-5.9-5.9C21.2.1 20.4 0 20 0H4.5A2.5 2.5 0 0 0 2 2.5v27C2 30.9 3.1 32 4.5 32h23c1.4 0 2.5-1.1 2.5-2.5V10c0-.4-.1-1.2-1.3-2.8zm-4.2-1.7c1 1 1.8 1.8 2.3 2.5H22V3.2c.7.5 1.6 1.3 2.5 2.3zm3.5 24c0 .3-.2.5-.5.5h-23a.5.5 0 0 1-.5-.5v-27c0-.3.2-.5.5-.5H20v7c0 .6.4 1 1 1h7v19.5z"/>
</svg>
